world_stage/static/flags/rect/zwe.svg

<svg height="667.35065" viewBox="0 0 1002.6667 667.35065" width="1002.6667" xmlns="http://www.w3.org/2000/svg" xmlns:xlink="http://www.w3.org/1999/xlink"><clipPath id="a"><path d="m0 0h752v500.513h-752z" transform="translate(-114.5415 -280.07571)"/></clipPath><clipPath id="b"><path d="m0 0h752v500.513h-752z" transform="translate(-77.558102 -216.55421)"/></clipPath><clipPath id="c"><path d="m0 0h752v500.513h-752z" transform="translate(-86.032705 -217.02981)"/></clipPath><clipPath id="d"><path d="m0 0h752v500.513h-752z" transform="translate(-100.5669 -217.96541)"/></clipPath><clipPath id="e"><path d="m0 0h752v500.513h-752z" transform="translate(-117.89211 -234.5718)"/></clipPath><clipPath id="f"><path d="m0 0h752v500.513h-752z" transform="translate(-131.17041 -240.89211)"/></clipPath><clipPath id="g"><path d="m0 0h752v500.513h-752z" transform="translate(-141.9619 -240.67631)"/></clipPath><clipPath id="h"><path d="m0 0h752v500.513h-752z" transform="translate(-112.56591 -172.9371)"/></clipPath><clipPath id="i"><path d="m0 0h752v500.513h-752z" transform="translate(-203.80321 -191.1333)"/></clipPath><clipPath id="j"><path d="m0 0h752v500.513h-752z" transform="translate(-90.7759 -296.30421)"/></clipPath><clipPath id="k"><path d="m0 0h752v500.513h-752z" transform="translate(-108.45411 -206.52981)"/></clipPath><clipPath id="l"><path d="m0 0h752v500.513h-752z" transform="translate(-139.7388 -229.96341)"/></clipPath><clipPath id="m"><path d="m0 0h752v500.513h-752z" transform="translate(-158.21241 -228.7251)"/></clipPath><clipPath id="n"><path d="m0 0h752v500.513h-752z" transform="translate(-89.450702 -345.92631)"/></clipPath><path d="m0 0h752v500.513h-752z" fill="#319208" transform="matrix(1.3333333 0 0 -1.3333333 0 667.35067)"/><path d="m0 68.513h752v360h-752z" fill="#ffd200" transform="matrix(1.3333333 0 0 -1.3333333 0 667.35067)"/><path d="m0 140.513h752v216h-752z" fill="#de2010" transform="matrix(1.3333333 0 0 -1.3333333 0 667.35067)"/><path d="m0 212.513h752v72h-752z" transform="matrix(1.3333333 0 0 -1.3333333 0 667.35067)"/><path d="m0 0v-500.513h22.979l331.351 248.513-336 252z" transform="matrix(1.3333333 0 0 -1.3333333 0 -.000533)"/><path d="m0 0v-500.513h4.649l331.351 248.513z" fill="#fff" transform="matrix(1.3333333 0 0 -1.3333333 0 -.000533)"/><g fill="#de2010"><g transform="matrix(1.3333333 0 0 -1.3333333 181.33333 165.33307)"><path d="m0 0-56.648-114.782 86.086-42.487z"/><path d="m0 0 56.648-114.782-86.086-42.487z"/><path d="m0 0-42.896-120.598 90.449-32.172z"/><path d="m0 0 42.896-120.598-90.449-32.172z"/></g><path d="m0 0-126.67 18.406-13.805-95.002z" transform="matrix(1.3333333 0 0 -1.3333333 343.6472 283.2608)"/><path d="m0 0 126.67 18.406 13.805-95.002z" transform="matrix(1.3333333 0 0 -1.3333333 19.019467 283.2608)"/><path d="m0 0-127.952 3.529-2.646-95.963z" transform="matrix(1.3333333 0 0 -1.3333333 343.6472 283.2608)"/><path d="m0 0 127.952 3.529 2.646-95.963z" transform="matrix(1.3333333 0 0 -1.3333333 19.019467 283.2608)"/><path d="m0 0-45.135-100.313 50.157-22.568z" transform="matrix(1.3333333 0 0 -1.3333333 181.33333 189.33307)"/><path d="m0 0 45.135-100.313-50.157-22.568z" transform="matrix(1.3333333 0 0 -1.3333333 181.33333 189.33307)"/><path d="m0 0-22.448 107.686-53.843-11.225z" transform="matrix(1.3333333 0 0 -1.3333333 267.5416 454.656)"/><path d="m0 0-95.478 54.626 27.313 47.739z" transform="matrix(1.3333333 0 0 -1.3333333 267.5416 454.656)"/><path d="m0 0 95.478 54.626-27.313 47.739z" transform="matrix(1.3333333 0 0 -1.3333333 95.125067 454.656)"/><path d="m0 0 22.448 107.686 53.843-11.225z" transform="matrix(1.3333333 0 0 -1.3333333 95.125067 454.656)"/></g><g stroke="#000"><path clip-path="url(#a)" d="m0 0c7.905-17.221 9.881-18.351 29.644-25.126 19.761-6.775 75.59-13.198 81.095-13.834-3.599 3.6-66.486 50.182-79.402 59.499-12.916 9.316-16.515 13.551-16.515 13.551s-11.646 20.962-15.669 27.102c-4.023 6.141-11.434 14.822-21.174 14.822s-15.668-5.717-18.491-15.88c-1.553-.424-9.882-5.506-9.599-10.729 2.4.283 17.504 4.518 22.727-12.562 5.223-17.081 5.505-45.03.141-58.864-5.364-13.833-13.693-24.278-13.693-36.418 0-1.694 1.129-5.082 3.953-5.082.988-5.365 8.893-43.618 8.893-43.618h112.645l17.891 69.168" fill="#ffc618" stroke-width=".212" transform="matrix(1.3333333 0 0 -1.3333333 152.722 293.9164)"/><path clip-path="url(#b)" d="m0 0s23.997 1.411 30.491 1.411c6.492 0 66.935-.074 100.659-7.871" fill="none" stroke-width=".212" transform="matrix(1.3333333 0 0 -1.3333333 103.4108 378.61173)"/><path clip-path="url(#c)" d="m0 0s-2.404 2.913-.852 8.7c1.553 5.787 18.492 20.751 18.492 41.924" fill="none" stroke-width=".212" transform="matrix(1.3333333 0 0 -1.3333333 114.71027 377.9776)"/><path clip-path="url(#d)" d="m0 0s-1.976 9.458 19.622 17.504c6.069 1.836 23.431 11.575 23.996 19.48" fill="none" stroke-width=".212" transform="matrix(1.3333333 0 0 -1.3333333 134.0892 376.73013)"/><path clip-path="url(#e)" d="m0 0s52.974-.231 94.897-8.701" fill="none" stroke-width=".212" transform="matrix(1.3333333 0 0 -1.3333333 157.18947 354.58827)"/><path clip-path="url(#f)" d="m0 0s18.202-.623 21.167.224c2.964.847 8.211 3.048 10.298 9.253" fill="none" stroke-width=".212" transform="matrix(1.3333333 0 0 -1.3333333 174.89387 346.1612)"/><path clip-path="url(#g)" d="m0 0s9.736 5.062 11.644 11.644" fill="none" stroke-width=".212" transform="matrix(1.3333333 0 0 -1.3333333 189.28253 346.44893)"/><path clip-path="url(#h)" d="m0 0s-4.165 28.865-5.012 45.028l10.87-10.375 11.499 10.057 9.887-10.551 11.43 9.699 9.884-11.11 11.32 9.626 9.007-10.474 11.289 8.164 13.421-12.754" fill="none" stroke-width=".212" transform="matrix(1.3333333 0 0 -1.3333333 150.08787 436.76787)"/><path clip-path="url(#i)" d="m0 0c-40.322 5.774-94.281 5.399-94.281 5.399" fill="none" stroke-width=".212" transform="matrix(1.3333333 0 0 -1.3333333 271.7376 412.50627)"/><path clip-path="url(#j)" d="m0 0s32.799 15.674 38.587 17.861" fill="none" stroke-width=".212" transform="matrix(1.3333333 0 0 -1.3333333 121.03453 272.2784)"/><path clip-path="url(#k)" d="m0 0 11.025-10.038 9.962 9.962 10.076-10.389 10.879 9.62 10.017-10.527 11.298 9.327 9.229-10.78 11.239 8.592 11.813-10.434" fill="none" transform="matrix(1.3333333 0 0 -1.3333333 144.60547 391.9776)"/><path clip-path="url(#l)" d="m0 0c2.417 0 4.376-1.959 4.376-4.375 0-2.417-1.959-4.376-4.376-4.376s-4.375 1.959-4.375 4.376c0 2.416 1.958 4.375 4.375 4.375z" fill="none" transform="matrix(1.3333333 0 0 -1.3333333 186.3184 360.7328)"/><path clip-path="url(#m)" d="m0 0c2.417 0 4.375-1.959 4.375-4.376s-1.958-4.376-4.375-4.376-4.376 1.959-4.376 4.376 1.959 4.376 4.376 4.376z" fill="none" transform="matrix(1.3333333 0 0 -1.3333333 210.94987 362.38387)"/><path clip-path="url(#n)" d="m0 0c1.871 0 3.388-1.517 3.388-3.388s-1.517-3.387-3.388-3.387-3.388 1.516-3.388 3.387 1.517 3.388 3.388 3.388z" fill="none" transform="matrix(1.3333333 0 0 -1.3333333 119.2676 206.1156)"/></g></svg>

<?xml version="1.0" encoding="UTF-8" standalone="no"?>
<!-- Created with Inkscape (http://www.inkscape.org/) -->

<svg
   version="1.1"
   id="svg1"
   width="1002.6667"
   height="667.35065"
   viewBox="0 0 1002.6667 667.35065"
   sodipodi:docname="zw.ai"
   xmlns:inkscape="http://www.inkscape.org/namespaces/inkscape"
   xmlns:sodipodi="http://sodipodi.sourceforge.net/DTD/sodipodi-0.dtd"
   xmlns="http://www.w3.org/2000/svg"
   xmlns:svg="http://www.w3.org/2000/svg">
  <defs
     id="defs1">
    <clipPath
       clipPathUnits="userSpaceOnUse"
       id="clipPath22">
      <path
         d="M 0,0 H 752 V 500.513 H 0 Z"
         transform="translate(-114.5415,-280.07571)"
         id="path22" />
    </clipPath>
    <clipPath
       clipPathUnits="userSpaceOnUse"
       id="clipPath24">
      <path
         d="M 0,0 H 752 V 500.513 H 0 Z"
         transform="translate(-77.558102,-216.55421)"
         id="path24" />
    </clipPath>
    <clipPath
       clipPathUnits="userSpaceOnUse"
       id="clipPath26">
      <path
         d="M 0,0 H 752 V 500.513 H 0 Z"
         transform="translate(-86.032705,-217.02981)"
         id="path26" />
    </clipPath>
    <clipPath
       clipPathUnits="userSpaceOnUse"
       id="clipPath28">
      <path
         d="M 0,0 H 752 V 500.513 H 0 Z"
         transform="translate(-100.5669,-217.96541)"
         id="path28" />
    </clipPath>
    <clipPath
       clipPathUnits="userSpaceOnUse"
       id="clipPath30">
      <path
         d="M 0,0 H 752 V 500.513 H 0 Z"
         transform="translate(-117.89211,-234.5718)"
         id="path30" />
    </clipPath>
    <clipPath
       clipPathUnits="userSpaceOnUse"
       id="clipPath32">
      <path
         d="M 0,0 H 752 V 500.513 H 0 Z"
         transform="translate(-131.17041,-240.89211)"
         id="path32" />
    </clipPath>
    <clipPath
       clipPathUnits="userSpaceOnUse"
       id="clipPath34">
      <path
         d="M 0,0 H 752 V 500.513 H 0 Z"
         transform="translate(-141.9619,-240.67631)"
         id="path34" />
    </clipPath>
    <clipPath
       clipPathUnits="userSpaceOnUse"
       id="clipPath36">
      <path
         d="M 0,0 H 752 V 500.513 H 0 Z"
         transform="translate(-112.56591,-172.9371)"
         id="path36" />
    </clipPath>
    <clipPath
       clipPathUnits="userSpaceOnUse"
       id="clipPath38">
      <path
         d="M 0,0 H 752 V 500.513 H 0 Z"
         transform="translate(-203.80321,-191.1333)"
         id="path38" />
    </clipPath>
    <clipPath
       clipPathUnits="userSpaceOnUse"
       id="clipPath40">
      <path
         d="M 0,0 H 752 V 500.513 H 0 Z"
         transform="translate(-90.7759,-296.30421)"
         id="path40" />
    </clipPath>
    <clipPath
       clipPathUnits="userSpaceOnUse"
       id="clipPath42">
      <path
         d="M 0,0 H 752 V 500.513 H 0 Z"
         transform="translate(-108.45411,-206.52981)"
         id="path42" />
    </clipPath>
    <clipPath
       clipPathUnits="userSpaceOnUse"
       id="clipPath44">
      <path
         d="M 0,0 H 752 V 500.513 H 0 Z"
         transform="translate(-139.7388,-229.96341)"
         id="path44" />
    </clipPath>
    <clipPath
       clipPathUnits="userSpaceOnUse"
       id="clipPath46">
      <path
         d="M 0,0 H 752 V 500.513 H 0 Z"
         transform="translate(-158.21241,-228.7251)"
         id="path46" />
    </clipPath>
    <clipPath
       clipPathUnits="userSpaceOnUse"
       id="clipPath48">
      <path
         d="M 0,0 H 752 V 500.513 H 0 Z"
         transform="translate(-89.450702,-345.92631)"
         id="path48" />
    </clipPath>
  </defs>
  <sodipodi:namedview
     id="namedview1"
     pagecolor="#ffffff"
     bordercolor="#000000"
     borderopacity="0.25"
     inkscape:showpageshadow="2"
     inkscape:pageopacity="0.0"
     inkscape:pagecheckerboard="0"
     inkscape:deskcolor="#d1d1d1">
    <inkscape:page
       x="0"
       y="0"
       inkscape:label="1"
       id="page1"
       width="1002.6667"
       height="667.35065"
       margin="0"
       bleed="0" />
  </sodipodi:namedview>
  <g
     id="layer-MC0"
     inkscape:groupmode="layer"
     inkscape:label="Layer 1">
    <path
       id="path1"
       d="M 0,0 H 752 V 500.513 H 0 Z"
       style="fill:#319208;fill-opacity:1;fill-rule:nonzero;stroke:none"
       transform="matrix(1.3333333,0,0,-1.3333333,0,667.35067)" />
    <path
       id="path2"
       d="m 0,68.513 h 752 v 360 H 0 Z"
       style="fill:#ffd200;fill-opacity:1;fill-rule:nonzero;stroke:none"
       transform="matrix(1.3333333,0,0,-1.3333333,0,667.35067)" />
    <path
       id="path3"
       d="m 0,140.513 h 752 v 216 H 0 Z"
       style="fill:#de2010;fill-opacity:1;fill-rule:nonzero;stroke:none"
       transform="matrix(1.3333333,0,0,-1.3333333,0,667.35067)" />
    <path
       id="path4"
       d="m 0,212.513 h 752 v 72 H 0 Z"
       style="fill:#000000;fill-opacity:1;fill-rule:nonzero;stroke:none"
       transform="matrix(1.3333333,0,0,-1.3333333,0,667.35067)" />
    <path
       id="path5"
       d="M 0,0 V -500.513 H 22.979 L 354.33,-252 18.33,0 Z"
       style="fill:#000000;fill-opacity:1;fill-rule:nonzero;stroke:none"
       transform="matrix(1.3333333,0,0,-1.3333333,0,-5.3333333e-4)" />
    <path
       id="path6"
       d="M 0,0 V -500.513 H 4.649 L 336,-252 Z"
       style="fill:#ffffff;fill-opacity:1;fill-rule:nonzero;stroke:none"
       transform="matrix(1.3333333,0,0,-1.3333333,0,-5.3333333e-4)" />
    <path
       id="path7"
       d="m 0,0 -56.648,-114.782 86.086,-42.487 z"
       style="fill:#de2010;fill-opacity:1;fill-rule:nonzero;stroke:none"
       transform="matrix(1.3333333,0,0,-1.3333333,181.33333,165.33307)" />
    <path
       id="path8"
       d="m 0,0 56.648,-114.782 -86.086,-42.487 z"
       style="fill:#de2010;fill-opacity:1;fill-rule:nonzero;stroke:none"
       transform="matrix(1.3333333,0,0,-1.3333333,181.33333,165.33307)" />
    <path
       id="path9"
       d="M 0,0 -42.896,-120.598 47.553,-152.77 Z"
       style="fill:#de2010;fill-opacity:1;fill-rule:nonzero;stroke:none"
       transform="matrix(1.3333333,0,0,-1.3333333,181.33333,165.33307)" />
    <path
       id="path10"
       d="M 0,0 42.896,-120.598 -47.553,-152.77 Z"
       style="fill:#de2010;fill-opacity:1;fill-rule:nonzero;stroke:none"
       transform="matrix(1.3333333,0,0,-1.3333333,181.33333,165.33307)" />
    <path
       id="path11"
       d="m 0,0 -126.67,18.406 -13.805,-95.002 z"
       style="fill:#de2010;fill-opacity:1;fill-rule:nonzero;stroke:none"
       transform="matrix(1.3333333,0,0,-1.3333333,343.6472,283.2608)" />
    <path
       id="path12"
       d="m 0,0 126.67,18.406 13.805,-95.002 z"
       style="fill:#de2010;fill-opacity:1;fill-rule:nonzero;stroke:none"
       transform="matrix(1.3333333,0,0,-1.3333333,19.019467,283.2608)" />
    <path
       id="path13"
       d="m 0,0 -127.952,3.529 -2.646,-95.963 z"
       style="fill:#de2010;fill-opacity:1;fill-rule:nonzero;stroke:none"
       transform="matrix(1.3333333,0,0,-1.3333333,343.6472,283.2608)" />
    <path
       id="path14"
       d="m 0,0 127.952,3.529 2.646,-95.963 z"
       style="fill:#de2010;fill-opacity:1;fill-rule:nonzero;stroke:none"
       transform="matrix(1.3333333,0,0,-1.3333333,19.019467,283.2608)" />
    <path
       id="path15"
       d="M 0,0 -45.135,-100.313 5.022,-122.881 Z"
       style="fill:#de2010;fill-opacity:1;fill-rule:nonzero;stroke:none"
       transform="matrix(1.3333333,0,0,-1.3333333,181.33333,189.33307)" />
    <path
       id="path16"
       d="M 0,0 45.135,-100.313 -5.022,-122.881 Z"
       style="fill:#de2010;fill-opacity:1;fill-rule:nonzero;stroke:none"
       transform="matrix(1.3333333,0,0,-1.3333333,181.33333,189.33307)" />
    <path
       id="path17"
       d="M 0,0 -22.448,107.686 -76.291,96.461 Z"
       style="fill:#de2010;fill-opacity:1;fill-rule:nonzero;stroke:none"
       transform="matrix(1.3333333,0,0,-1.3333333,267.5416,454.656)" />
    <path
       id="path18"
       d="m 0,0 -95.478,54.626 27.313,47.739 z"
       style="fill:#de2010;fill-opacity:1;fill-rule:nonzero;stroke:none"
       transform="matrix(1.3333333,0,0,-1.3333333,267.5416,454.656)" />
    <path
       id="path19"
       d="M 0,0 95.478,54.626 68.165,102.365 Z"
       style="fill:#de2010;fill-opacity:1;fill-rule:nonzero;stroke:none"
       transform="matrix(1.3333333,0,0,-1.3333333,95.125067,454.656)" />
    <path
       id="path20"
       d="M 0,0 22.448,107.686 76.291,96.461 Z"
       style="fill:#de2010;fill-opacity:1;fill-rule:nonzero;stroke:none"
       transform="matrix(1.3333333,0,0,-1.3333333,95.125067,454.656)" />
    <path
       id="path21"
       d="m 0,0 c 7.905,-17.221 9.881,-18.351 29.644,-25.126 19.761,-6.775 75.59,-13.198 81.095,-13.834 -3.599,3.6 -66.486,50.182 -79.402,59.499 -12.916,9.316 -16.515,13.551 -16.515,13.551 0,0 -11.646,20.962 -15.669,27.102 -4.023,6.141 -11.434,14.822 -21.174,14.822 -9.74,0 -15.668,-5.717 -18.491,-15.88 -1.553,-0.424 -9.882,-5.506 -9.599,-10.729 2.4,0.283 17.504,4.518 22.727,-12.562 5.223,-17.081 5.505,-45.03 0.141,-58.864 -5.364,-13.833 -13.693,-24.278 -13.693,-36.418 0,-1.694 1.129,-5.082 3.953,-5.082 0.988,-5.365 8.893,-43.618 8.893,-43.618 H 84.555 l 17.891,69.168"
       style="fill:#ffc618;fill-opacity:1;fill-rule:nonzero;stroke:#000000;stroke-width:0.212;stroke-linecap:butt;stroke-linejoin:miter;stroke-miterlimit:4;stroke-dasharray:none;stroke-opacity:1"
       transform="matrix(1.3333333,0,0,-1.3333333,152.722,293.9164)"
       clip-path="url(#clipPath22)" />
    <path
       id="path23"
       d="m 0,0 c 0,0 23.997,1.411 30.491,1.411 6.492,0 66.935,-0.074 100.659,-7.871"
       style="fill:none;stroke:#000000;stroke-width:0.212;stroke-linecap:butt;stroke-linejoin:miter;stroke-miterlimit:4;stroke-dasharray:none;stroke-opacity:1"
       transform="matrix(1.3333333,0,0,-1.3333333,103.4108,378.61173)"
       clip-path="url(#clipPath24)" />
    <path
       id="path25"
       d="M 0,0 C 0,0 -2.404,2.913 -0.852,8.7 0.701,14.487 17.64,29.451 17.64,50.624"
       style="fill:none;stroke:#000000;stroke-width:0.212;stroke-linecap:butt;stroke-linejoin:miter;stroke-miterlimit:4;stroke-dasharray:none;stroke-opacity:1"
       transform="matrix(1.3333333,0,0,-1.3333333,114.71027,377.9776)"
       clip-path="url(#clipPath26)" />
    <path
       id="path27"
       d="m 0,0 c 0,0 -1.976,9.458 19.622,17.504 6.069,1.836 23.431,11.575 23.996,19.48"
       style="fill:none;stroke:#000000;stroke-width:0.212;stroke-linecap:butt;stroke-linejoin:miter;stroke-miterlimit:4;stroke-dasharray:none;stroke-opacity:1"
       transform="matrix(1.3333333,0,0,-1.3333333,134.0892,376.73013)"
       clip-path="url(#clipPath28)" />
    <path
       id="path29"
       d="M 0,0 C 0,0 52.974,-0.231 94.897,-8.701"
       style="fill:none;stroke:#000000;stroke-width:0.212;stroke-linecap:butt;stroke-linejoin:miter;stroke-miterlimit:4;stroke-dasharray:none;stroke-opacity:1"
       transform="matrix(1.3333333,0,0,-1.3333333,157.18947,354.58827)"
       clip-path="url(#clipPath30)" />
    <path
       id="path31"
       d="m 0,0 c 0,0 18.202,-0.623 21.167,0.224 2.964,0.847 8.211,3.048 10.298,9.253"
       style="fill:none;stroke:#000000;stroke-width:0.212;stroke-linecap:butt;stroke-linejoin:miter;stroke-miterlimit:4;stroke-dasharray:none;stroke-opacity:1"
       transform="matrix(1.3333333,0,0,-1.3333333,174.89387,346.1612)"
       clip-path="url(#clipPath32)" />
    <path
       id="path33"
       d="M 0,0 C 0,0 9.736,5.062 11.644,11.644"
       style="fill:none;stroke:#000000;stroke-width:0.212;stroke-linecap:butt;stroke-linejoin:miter;stroke-miterlimit:4;stroke-dasharray:none;stroke-opacity:1"
       transform="matrix(1.3333333,0,0,-1.3333333,189.28253,346.44893)"
       clip-path="url(#clipPath34)" />
    <path
       id="path35"
       d="m 0,0 c 0,0 -4.165,28.865 -5.012,45.028 l 10.87,-10.375 11.499,10.057 9.887,-10.551 11.43,9.699 9.884,-11.11 11.32,9.626 L 68.885,31.9 80.174,40.064 93.595,27.31"
       style="fill:none;stroke:#000000;stroke-width:0.212;stroke-linecap:butt;stroke-linejoin:miter;stroke-miterlimit:4;stroke-dasharray:none;stroke-opacity:1"
       transform="matrix(1.3333333,0,0,-1.3333333,150.08787,436.76787)"
       clip-path="url(#clipPath36)" />
    <path
       id="path37"
       d="M 0,0 C -40.322,5.774 -94.281,5.399 -94.281,5.399"
       style="fill:none;stroke:#000000;stroke-width:0.212;stroke-linecap:butt;stroke-linejoin:miter;stroke-miterlimit:4;stroke-dasharray:none;stroke-opacity:1"
       transform="matrix(1.3333333,0,0,-1.3333333,271.7376,412.50627)"
       clip-path="url(#clipPath38)" />
    <path
       id="path39"
       d="M 0,0 C 0,0 32.799,15.674 38.587,17.861"
       style="fill:none;stroke:#000000;stroke-width:0.212;stroke-linecap:butt;stroke-linejoin:miter;stroke-miterlimit:4;stroke-dasharray:none;stroke-opacity:1"
       transform="matrix(1.3333333,0,0,-1.3333333,121.03453,272.2784)"
       clip-path="url(#clipPath40)" />
    <path
       id="path41"
       d="m 0,0 11.025,-10.038 9.962,9.962 10.076,-10.389 10.879,9.62 10.017,-10.527 11.298,9.327 9.229,-10.78 11.239,8.592 11.813,-10.434"
       style="fill:none;stroke:#000000;stroke-width:1;stroke-linecap:butt;stroke-linejoin:miter;stroke-miterlimit:4;stroke-dasharray:none;stroke-opacity:1"
       transform="matrix(1.3333333,0,0,-1.3333333,144.60547,391.9776)"
       clip-path="url(#clipPath42)" />
    <path
       id="path43"
       d="m 0,0 c 2.417,0 4.376,-1.959 4.376,-4.375 0,-2.417 -1.959,-4.376 -4.376,-4.376 -2.417,0 -4.375,1.959 -4.375,4.376 C -4.375,-1.959 -2.417,0 0,0 Z"
       style="fill:none;stroke:#000000;stroke-width:1;stroke-linecap:butt;stroke-linejoin:miter;stroke-miterlimit:4;stroke-dasharray:none;stroke-opacity:1"
       transform="matrix(1.3333333,0,0,-1.3333333,186.3184,360.7328)"
       clip-path="url(#clipPath44)" />
    <path
       id="path45"
       d="m 0,0 c 2.417,0 4.375,-1.959 4.375,-4.376 0,-2.417 -1.958,-4.376 -4.375,-4.376 -2.417,0 -4.376,1.959 -4.376,4.376 C -4.376,-1.959 -2.417,0 0,0 Z"
       style="fill:none;stroke:#000000;stroke-width:1;stroke-linecap:butt;stroke-linejoin:miter;stroke-miterlimit:4;stroke-dasharray:none;stroke-opacity:1"
       transform="matrix(1.3333333,0,0,-1.3333333,210.94987,362.38387)"
       clip-path="url(#clipPath46)" />
    <path
       id="path47"
       d="m 0,0 c 1.871,0 3.388,-1.517 3.388,-3.388 0,-1.871 -1.517,-3.387 -3.388,-3.387 -1.871,0 -3.388,1.516 -3.388,3.387 C -3.388,-1.517 -1.871,0 0,0 Z"
       style="fill:none;stroke:#000000;stroke-width:1;stroke-linecap:butt;stroke-linejoin:miter;stroke-miterlimit:4;stroke-dasharray:none;stroke-opacity:1"
       transform="matrix(1.3333333,0,0,-1.3333333,119.2676,206.1156)"
       clip-path="url(#clipPath48)" />
  </g>
</svg>
